icons/arrow-block-topleftB.svg

<svg width="24" height="24" viewBox="0 0 24 24" fill="none" xmlns="http://www.w3.org/2000/svg">
<path d="M16.833 8.433L14.433 10.833L18.833 15.233C19.033 15.433 19.033 15.833 18.833 16.033L16.033 18.833C15.833 19.033 15.433 19.033 15.233 18.833L10.833 14.433L8.433 16.833C8.333 16.933 8.033 16.933 7.933 16.733L5.033 5.733C4.933 5.333 5.333 4.933 5.733 5.033L16.733 7.933C16.933 8.033 17.033 8.233 16.833 8.433Z" fill="black"/>
<path fill-rule="evenodd" clip-rule="evenodd" d="M5.83574 5.83569L8.45074 15.7546L10.833 13.3723L15.633 18.1723L18.1724 15.633L13.3724 10.833L15.7547 8.45068L5.83574 5.83569ZM4.66521 4.66516C4.95419 4.37618 5.41497 4.18039 5.91494 4.30538L5.92425 4.30771L16.9992 7.22752L17.0685 7.26217C17.2822 7.36904 17.552 7.58178 17.6542 7.93945C17.7717 8.35082 17.6056 8.72107 17.3634 8.96332L15.4937 10.833L19.3634 14.7027C19.6359 14.9751 19.733 15.3341 19.733 15.633C19.733 15.9318 19.6359 16.2908 19.3634 16.5633L16.5634 19.3633C16.2909 19.6358 15.9319 19.733 15.633 19.733C15.3342 19.733 14.9752 19.6358 14.7027 19.3633L10.833 15.4936L8.96337 17.3633C8.68835 17.6383 8.31704 17.6681 8.09001 17.6397C7.82518 17.6066 7.45756 17.4591 7.26222 17.0684L7.22757 16.9991L4.30537 5.9149C4.18038 5.41493 4.37623 4.95414 4.66521 4.66516Z" fill="black"/>
</svg>

<svg xmlns="http://www.w3.org/2000/svg" fill="none" viewBox="0 0 24 24">
  <path fill="#000" d="m16.833 8.433-2.4 2.4 4.4 4.4c.2.2.2.6 0 .8l-2.8 2.8c-.2.2-.6.2-.8 0l-4.4-4.4-2.4 2.4c-.1.1-.4.1-.5-.1l-2.9-11c-.1-.4.3-.8.7-.7l11 2.9c.2.1.3.3.1.5Z"/>
  <path fill="#000" fill-rule="evenodd" d="m5.836 5.836 2.615 9.919 2.382-2.383 4.8 4.8 2.54-2.539-4.8-4.8 2.382-2.382-9.92-2.615Zm-1.17-1.17c.288-.29.749-.486 1.249-.36l.01.002 11.074 2.92.07.034c.213.107.483.32.585.677.118.412-.048.782-.29 1.024l-1.87 1.87 3.87 3.87c.272.272.369.631.369.93 0 .299-.097.658-.37.93l-2.8 2.8c-.272.273-.631.37-.93.37-.299 0-.658-.097-.93-.37l-3.87-3.87-1.87 1.87c-.275.275-.646.305-.873.277a1.062 1.062 0 0 1-.828-.572L7.228 17 4.305 5.915c-.125-.5.071-.96.36-1.25Z" clip-rule="evenodd"/>
</svg>
